X: 0102
T: Anderson's Rand - 8x32R
P: Elliot Anderson
C: Muriel A Johnstone
B: Miss Milligan's Miscellany v.1 #0102
B: Originally Ours v.1 p.169 #MMM-0102
Z: 2020 John Chambers <jc:trillian.mit.edu>
M: 4/4
L: 1/8
R: reel
K: D
%
C2 |:\
"D"D2FD "F#/D"d2cd | "A7"Agfe "D"d2cd | "Em"eEEF GFGA | "Em"BdcB "A7"AGFE |
"D"D2FD "F#/D"d2cd | "A7"Agfe "D"d2cd | "Em"eEEF GAB^d | "Em"e^def "A7"g2fe ||
"D"fddc d3e | "D"fddc d2ef | "Em"gEEF G^AB^d | "Em"e^def "A7"g2fe |
"D"fddc d3e | "D"fddc d2ef |1 "Em"gEEF GFGA | "Em"BdcB "A7"AGFE :|2 "Em"gEEF GABd | "A7"cABc "D"d2d2 |]
